X: 1
T:Lochanside
M:3/4
L:1/8
Q:80
C:John MacLellan
S:Retreat March
K:HP
|1 {Gdc}d3/2e/2|2 {gdc}d3/2e/2{g}f2{gfg}fa|
{f}ge{gfg}f2{Gdc}d2|
a3/2f/2{Gdc}d2{gdc}d3/2e/2|  !
{gfg}f{GAG}A{gfg}f2{g}e2|
{gef}e3/2d/2{g}c2{GdG}ca|
{f}ge{Gdc}d2{e}A2|  !
{g}e3/2f/2{gf}g2{f}gB|
{gcd}c{e}A{Gdc}d2{gdc}d2:| |:
{gdc}d3/2f/2{ag}a2{g}a3/2g/2|  !
{fg}f3/2g/2{ag}a2{fg}f2|
{Gdc}d{e}A{GdG}B2{gf}g3/2f/2|
{gef}ed{gfg}f2{g}e2|  !
{gef}e3/2d/2{gcd}c2{GdG}ca|
{g}ge{Gdc}d2{e}A2|
{g}e3/2f/2{gf}g2{f}gB|  !
{gcd}c{d}A{Gdc}d2{gdc}d2:| |:
{gcd}c2{GBG}A2{GAG}A{d}c|
{gef}e{g}g{fg}f2{Gdc}d2|  !
{gcd}c2{GBG}A2{GAG}A{d}c|
{ag}a3/2g/2{fg}f2{gef}e{g}A|
{Gdc}df{ag}a2{fg}fa|  !
g/2f/2{g}e/2d/2{gcd}c2{gBd}B2|
{g}e3/2f/2{gf}g2{f}gB|
{gcd}c{e}A{Gdc}d2{gdc}d2:|  !
